src/assets/images/free-demat-compaign/loan.svg

<svg width="52" height="48" viewBox="0 0 52 48" fill="none" xmlns="http://www.w3.org/2000/svg">
<path d="M34.6826 0.0275578C35.1097 0.372031 35.1648 0.77162 34.9306 1.25388C34.3794 2.49399 33.8696 3.74787 33.3047 4.97419C33.2358 5.13954 33.0566 5.29111 32.8775 5.36C31.541 5.89738 30.1906 5.89738 28.8541 5.36C28.6749 5.29111 28.482 5.11198 28.3994 4.93286C27.862 3.73409 27.3522 2.50776 26.8148 1.29522C26.5943 0.799178 26.5943 0.372031 27.0077 0H27.3246C28.6336 0.950746 29.6119 0.950746 30.6316 0H31.0449C32.1886 0.950746 33.1807 0.950746 34.3519 0H34.6688L34.6826 0.0275578Z" fill="white"/>
<path d="M30.8649 31.912C25.5463 31.8018 20.8614 28.6051 19.2493 23.8376C18.0092 20.1724 18.7532 16.7552 20.7787 13.5585C22.3633 11.0645 24.5404 9.21813 27.0619 7.70245C27.8749 7.20641 28.5363 7.06862 29.4457 7.3442C30.6858 7.73001 31.9672 7.55088 33.2073 7.12373C33.4967 7.02728 33.6896 6.99972 33.9376 7.24775C34.1443 7.45443 34.4474 7.59222 34.7092 7.74379C37.6579 9.42482 40.0417 11.6708 41.64 14.7021C45.4568 21.9774 41.2818 29.4732 34.227 31.3333C33.1384 31.6227 31.9948 31.7053 30.8787 31.8845L30.8649 31.912ZM27.117 24.2923C27.434 24.0856 27.7095 23.9478 27.9162 23.7411C30.2586 21.4125 32.6011 19.0838 34.9297 16.7552C35.0124 16.6725 35.1088 16.5899 35.1639 16.4934C35.412 16.1352 35.3706 15.6529 35.0675 15.3635C34.7506 15.0604 34.3096 15.0191 33.9376 15.2809C33.8274 15.3635 33.7309 15.46 33.6345 15.5564C31.3196 17.8575 29.0048 20.1724 26.7037 22.4872C26.5934 22.5975 26.4281 22.7077 26.4143 22.8317C26.3592 23.1211 26.2903 23.4655 26.4005 23.6998C26.5108 23.934 26.8277 24.0718 27.117 24.3061V24.2923ZM33.8687 25.2155C35.2742 25.2155 36.404 24.0994 36.404 22.7215C36.404 21.3436 35.2604 20.1999 33.8687 20.1999C32.4908 20.1999 31.3747 21.316 31.361 22.6801C31.361 24.0718 32.4633 25.2017 33.8687 25.2155ZM30.3551 16.6863C30.3551 15.2809 29.2252 14.1648 27.8336 14.1785C26.4419 14.1785 25.3258 15.3222 25.3396 16.7276C25.3533 18.0918 26.4694 19.2079 27.8336 19.2216C29.2252 19.2216 30.3551 18.0918 30.3551 16.7001V16.6863Z" fill="white"/>
<path d="M10.3888 43.9412C10.3888 43.7896 10.3888 43.6656 10.3888 43.5416C10.3888 40.6066 10.3888 37.658 10.3888 34.7231C10.3888 34.3648 10.4852 34.227 10.8573 34.1581C12.3867 33.8412 13.9024 33.4416 15.4456 33.1798C17.4987 32.8216 19.5104 33.1247 21.5084 33.7172C25.7936 34.9986 30.0789 36.2387 34.3641 37.5064C34.7775 37.6304 35.1908 37.782 35.5353 38.0162C36.4034 38.5949 36.3345 39.6835 35.4389 40.2208C34.8739 40.5653 34.2539 40.5653 33.6338 40.4275C29.197 39.4768 24.7602 38.5123 20.3234 37.5615C20.1856 37.5339 20.0478 37.5064 19.9238 37.4788C19.3175 37.3686 18.8628 37.6304 18.7664 38.1264C18.6699 38.65 18.9455 39.0496 19.5655 39.1874C20.5438 39.4079 21.5084 39.6146 22.4867 39.8213C26.1519 40.6066 29.8171 41.4196 33.4823 42.1774C35.1633 42.5357 36.7892 41.8743 37.4781 40.524C37.7675 39.9453 37.8502 39.2701 38.0431 38.5398C39.9446 38.0713 41.9839 37.5753 44.0231 37.093C45.7179 36.6934 47.399 36.2801 49.0938 35.9218C49.5209 35.8391 49.9894 35.8667 50.4166 35.9494C51.2295 36.1147 51.5464 36.721 51.2571 37.5064C50.9677 38.2918 50.3477 38.7327 49.6174 39.0496C47.2061 40.0831 44.7948 41.1302 42.3697 42.1774C38.8009 43.7207 35.2322 45.2364 31.6772 46.8072C28.6045 48.1575 25.4767 48.3642 22.2662 47.4134C18.3254 46.2422 14.3847 45.1124 10.375 43.9549L10.3888 43.9412Z" fill="white"/>
<path d="M0 39.0772C0 36.597 0.0137789 34.1305 0 31.6503C0 31.1956 0.110231 31.0165 0.606273 31.0303C3.08648 31.0578 5.56669 31.0441 8.04689 31.0303C8.48782 31.0303 8.63939 31.1543 8.63939 31.609C8.62561 36.597 8.63939 41.5712 8.63939 46.5591C8.63939 47.0001 8.52915 47.1654 8.06067 47.1654C5.56669 47.1516 3.0727 47.1516 0.578715 47.1654C0.151568 47.1654 0.0137789 47.0276 0.0137789 46.6005C0.0275578 44.0927 0.0137789 41.5849 0.0137789 39.0772H0Z" fill="white"/>
<path d="M34.6563 22.6939C34.6563 23.1073 34.3256 23.438 33.9122 23.4517C33.4989 23.4517 33.1544 23.1211 33.1406 22.7215C33.1406 22.3081 33.4713 21.9774 33.8847 21.9636C34.2981 21.9636 34.6425 22.2943 34.6563 22.6939Z" fill="white"/>
<path d="M27.8594 17.4302C27.4598 17.4302 27.1153 17.0995 27.1016 16.6862C27.1016 16.2728 27.4185 15.9283 27.8318 15.9146C28.2452 15.9146 28.5759 16.2452 28.5897 16.6586C28.5897 17.072 28.2728 17.4165 27.8594 17.4302Z" fill="white"/>
</svg>

<svg width="52" height="48" fill="none" xmlns="http://www.w3.org/2000/svg"><path d="M34.683.028c.427.344.482.744.248 1.226-.552 1.24-1.061 2.494-1.626 3.72-.07.166-.248.317-.428.386-1.336.537-2.686.537-4.023 0a.913.913 0 0 1-.455-.427c-.537-1.199-1.047-2.425-1.584-3.638-.22-.496-.22-.923.193-1.295h.317c1.309.95 2.287.95 3.307 0h.413c1.144.95 2.136.95 3.307 0h.317l.014.028zM30.865 31.912c-5.319-.11-10.004-3.307-11.616-8.074-1.24-3.666-.496-7.083 1.53-10.28 1.584-2.493 3.761-4.34 6.283-5.856.813-.496 1.474-.633 2.384-.358 1.24.386 2.521.207 3.761-.22.29-.097.483-.124.73.124.207.206.51.344.772.496 2.949 1.68 5.333 3.927 6.931 6.958 3.817 7.275-.358 14.771-7.413 16.631-1.089.29-2.232.372-3.348.552l-.014.027zm-3.748-7.62c.317-.206.592-.344.8-.55a3354 3354 0 0 0 7.013-6.987c.082-.082.179-.165.234-.262a.876.876 0 0 0-.096-1.13.86.86 0 0 0-1.13-.082c-.11.082-.207.179-.303.275-2.315 2.302-4.63 4.616-6.931 6.931-.11.11-.276.22-.29.345-.055.29-.124.633-.014.868.11.234.428.372.717.606v-.014zm6.752.923c1.405 0 2.535-1.116 2.535-2.494 0-1.377-1.144-2.521-2.535-2.521a2.511 2.511 0 0 0-2.508 2.48 2.523 2.523 0 0 0 2.508 2.535zm-3.514-8.529a2.494 2.494 0 0 0-2.521-2.508c-1.392 0-2.508 1.144-2.494 2.55a2.53 2.53 0 0 0 2.494 2.494 2.523 2.523 0 0 0 2.521-2.522v-.014zM10.389 43.941v-9.218c0-.358.096-.496.468-.565 1.53-.317 3.045-.716 4.589-.978 2.053-.358 4.064-.055 6.062.537 4.286 1.282 8.57 2.522 12.856 3.79.414.123.827.275 1.171.51.868.578.8 1.666-.096 2.204-.565.344-1.185.344-1.805.207-4.437-.951-8.874-1.916-13.31-2.866-.138-.028-.276-.056-.4-.083-.607-.11-1.061.151-1.158.647-.096.524.18.924.8 1.061.978.22 1.942.428 2.92.634 3.666.786 7.331 1.599 10.996 2.356 1.681.359 3.307-.303 3.996-1.653.29-.579.372-1.254.565-1.984 1.902-.469 3.94-.965 5.98-1.447 1.695-.4 3.376-.813 5.07-1.171.428-.083.896-.055 1.324.027.813.166 1.13.772.84 1.557-.29.786-.91 1.227-1.64 1.544-2.41 1.033-4.822 2.08-7.247 3.127-3.57 1.544-7.138 3.06-10.693 4.63-3.072 1.35-6.2 1.557-9.41.606-3.942-1.17-7.882-2.3-11.892-3.458l.014-.014zM0 39.077c0-2.48.014-4.947 0-7.427 0-.454.11-.633.606-.62 2.48.028 4.96.014 7.44 0 .442 0 .593.124.593.579-.013 4.988 0 9.962 0 14.95 0 .441-.11.606-.578.606a676.088 676.088 0 0 0-7.482 0c-.427 0-.565-.137-.565-.565.014-2.507 0-5.015 0-7.523H0z" fill="#fff"/><path d="M34.656 22.694c0 .413-.33.744-.744.758a.772.772 0 0 1-.771-.73c0-.414.33-.745.744-.758.413 0 .758.33.771.73zM27.86 17.43c-.4 0-.745-.33-.758-.744 0-.413.317-.758.73-.771.413 0 .744.33.758.744a.762.762 0 0 1-.73.771z" fill="#fff"/></svg>
